icons/file-history-line.svg

<svg viewBox="0 0 24 24" fill="currentColor" xmlns="http://www.w3.org/2000/svg">
    <path d="M16 2L20.9997 7L21 20.9925C21 21.5489 20.5551 22 20.0066 22H3.9934C3.44476 22 3 21.5447 3 21.0082V2.9918C3 2.44405 3.44749 2 3.9985 2H16ZM15 4H5V20H19V8H15V4ZM13 9V13H16V15H11V9H13Z"/>
</svg>

<svg xmlns="http://www.w3.org/2000/svg" viewBox="0 0 24 24">
    <g>
        <path fill="none" d="M0 0L24 0 24 24 0 24z"/>
        <path d="M16 2l5 5v13.993c0 .556-.445 1.007-.993 1.007H3.993C3.445 22 3 21.545 3 21.008V2.992C3 2.444 3.447 2 3.999 2H16zm-1 2H5v16h14V8h-4V4zm-2 5v4h3v2h-5V9h2z"/>
    </g>
</svg>
